Desktop/project_createx/public/images/About/unmute.svg

<svg width="800px" height="800px" viewBox="0 0 24 24" fill="none" xmlns="http://www.w3.org/2000/svg" stroke="#000000">
<g id="SVGRepo_bgCarrier" stroke-width="0"/>
<g id="SVGRepo_tracerCarrier" stroke-linecap="round" stroke-linejoin="round"/>
<g id="SVGRepo_iconCarrier"> <path fill-rule="evenodd" clip-rule="evenodd" d="M2 13C2 15.2091 3.79086 17 6 17H6.19669C6.69707 17 7.17928 17.1876 7.54814 17.5257L10.4773 20.2107C11.0311 20.7184 11.755 21 12.5063 21C13.7594 21 14.9494 20.2016 15.2601 18.8803C15.5904 17.476 16 15.1081 16 12C16 8.89192 15.5904 6.52403 15.2601 5.11974C14.9494 3.79838 13.7594 3 12.5063 3C11.755 3 11.0311 3.28161 10.4773 3.78926L7.54813 6.47431C7.17928 6.81243 6.69707 7 6.19669 7H6C3.79086 7 2 8.79086 2 11V13ZM6 15C4.89543 15 4 14.1046 4 13V11C4 9.89543 4.89543 9 6 9H6.19669C7.19745 9 8.16186 8.62486 8.89958 7.94862L11.8287 5.26357C12.0137 5.09404 12.2554 5 12.5063 5C12.9376 5 13.2384 5.25937 13.3132 5.57761C13.6134 6.85393 14 9.06723 14 12C14 14.9328 13.6134 17.1461 13.3132 18.4224C13.2384 18.7406 12.9376 19 12.5063 19C12.2554 19 12.0137 18.906 11.8287 18.7364L8.89958 16.0514C8.16186 15.3751 7.19745 15 6.19669 15H6Z" fill="#000000"/> <path d="M20.5723 6.09607C21.0716 5.85987 21.6677 6.0731 21.9039 6.57232C22.6447 8.13791 22.9979 10.0843 23 11.9889C23.0021 13.8934 22.6531 15.8479 21.9036 17.4285C21.6669 17.9275 21.0706 18.1402 20.5715 17.9036C20.0725 17.6669 19.8598 17.0706 20.0964 16.5715C20.6881 15.3238 21.0018 13.679 21 11.991C20.9981 10.303 20.6808 8.66357 20.0961 7.42768C19.8599 6.92845 20.0731 6.33227 20.5723 6.09607Z" fill="#000000"/> <path d="M17.5528 15.8944C17.0588 15.6474 16.8586 15.0468 17.1056 14.5528C17.9648 12.8343 17.9648 11.1657 17.1056 9.44721C16.8586 8.95324 17.0588 8.35256 17.5528 8.10557C18.0468 7.85858 18.6474 8.05881 18.8944 8.55279C20.0352 10.8343 20.0352 13.1657 18.8944 15.4472C18.6474 15.9412 18.0468 16.1414 17.5528 15.8944Z" fill="#000000"/> </g>
</svg>

<svg xmlns="http://www.w3.org/2000/svg" width="800" height="800" fill="none" stroke="#000" viewBox="0 0 24 24"><g fill="#000"><path fill-rule="evenodd" d="M2 13a4 4 0 0 0 4 4h.197a2 2 0 0 1 1.351.526l2.93 2.685c.553.507 1.277.789 2.028.789 1.253 0 2.443-.798 2.754-2.12.33-1.404.74-3.772.74-6.88s-.41-5.476-.74-6.88C14.95 3.798 13.76 3 12.506 3c-.751 0-1.475.282-2.029.79L7.548 6.473A2 2 0 0 1 6.197 7H6a4 4 0 0 0-4 4zm4 2a2 2 0 0 1-2-2v-2a2 2 0 0 1 2-2h.197A4 4 0 0 0 8.9 7.949l2.929-2.685c.185-.17.426-.264.677-.264.432 0 .732.26.807.578.3 1.276.687 3.49.687 6.422 0 2.933-.387 5.146-.687 6.422-.075.319-.375.578-.807.578-.25 0-.492-.094-.677-.264l-2.93-2.685A4 4 0 0 0 6.198 15z" clip-rule="evenodd"/><path d="M20.572 6.096a1 1 0 0 1 1.332.476c.74 1.566 1.094 3.512 1.096 5.417s-.347 3.859-1.096 5.44a1 1 0 0 1-1.808-.857c.592-1.248.906-2.893.904-4.581s-.32-3.327-.904-4.563a1 1 0 0 1 .476-1.332Z"/><path d="M17.553 15.894a1 1 0 0 1-.447-1.341c.859-1.719.859-3.387 0-5.106a1 1 0 1 1 1.788-.894c1.141 2.281 1.141 4.613 0 6.894a1 1 0 0 1-1.341.447Z"/></g></svg>
